X:11
T:First Snow
C:Grey Larsen
Z:robin.beech@mcgill.ca
S:Laurence Beaudry
P:AA BB AA BB CC DD CC DD
R:air
M:4/4
L:1/8
K:G
G3A BGAF | G2BG AGFG | E3F GEFD | E3D EFGA |
G3A BGAF | G2BG DGB/c/d | e3f edBA |1 B2e2 edBA :|2 B2e2 e4 |:
g3f edgf | e2fg fed^c | d3^c BAdc | B3=c BAFA |
G4 GABG | A2DE FGAF | B3c BAFA | G2E2 E4 ::
A3B cedc | B2G2 G2cB | A3B AGF/G/A | G2E2 E4 |
F3E D2EF | GBGF E2e=f | edcB EBdB | c2A2 A4 ::
EAcA EAcA | EABA EGBG | DFAF dFAB | G2E2 E2FG |
Acec EAce | GBeB EGBe | FAdA FBdf | e3=f edcB |
A3B cedc | B2G2 G2e=f | edcB EBdB| c2A2 A4:|
